X:1
T:Ave Regina Cælorum
T:Carlo Cozzi (? - 1658)
T:Ave Regina Cælorum
T:(c) Wim Looyestijn-2018. may be freely copied for non-commercial use.
T:(c) Wim Looyestijn-2018. may be freely copied for non-commercial use.
T:(c) Wim Looyestijn-2018. may be freely copied for non-commercial use.
T:(c) Wim Looyestijn-2018. may be freely copied for non-commercial use.
T:(c) Wim Looyestijn-2018. may be freely copied for non-commercial use.
T:(c) Wim Looyestijn-2018. may be freely copied for non-commercial use.
T:(c) Wim Looyestijn-2018. may be freely copied for non-commercial use.
T:(c) Wim Looyestijn-2018. may be freely copied for non-commercial use.
T:(c) Wim Looyestijn-2018. may be freely copied for non-commercial use.
T:(c) Wim Looyestijn-2018. may be freely copied for non-commercial use.
T:(c) Wim Looyestijn-2018. may be freely copied for non-commercial use.
T:(c) Wim Looyestijn-2018. may be freely copied for non-commercial use.
C:Carlo Cozzi
C:(? - 1658)
Z:(c) Wim Looyestijn-2018. may be freely copied for non-commercial use.
%%score [ 1 2 3 ] 4
L:1/8
Q:1/4=80
M:4/4
K:F
V:1 alto1 nm="Canto" snm="C"
V:2 alto nm="Alto" snm="A"
V:3 bass nm="Basso" snm="B"
V:4 bass nm="Basso continuo" snm="BC"
V:1
 x8 | z8 | x8 | z8 | z4 c4- | c4 A4 |[M:3/2] z4 A4 G4 | A4 A4 c4 | =B6 A2 B4 | c8 c4 | z4 c4 c4 | %11
w: ||||A-|* ve,|a- ve,|a- ve Re-|gi- na Cæ-|lo- rum,|a- ve|
 B6 B2 A4 | G8 G4 | A8 A4 |[M:4/4] z8 | z4 F4- | F4 D4 |[M:3/2] z4 F4 F4 | F4 F4 A4 | G6 G2 G4 | %20
w: Do- mi- na|an- ge-|lo- rum.||A-|* ve,|a- ve,|a- ve Re-|gi- na Cæ-|
 A8 A4 | z4 c4 G4 | A6 B2 c4 | c8 =B4 | c8 c4 | z4 A4 G4 | F6 G2 A4 | A4 G8 | A4 F4 F4 | %29
w: lo- rum,|a- ve|Do- mi- na|an- ge-|lo- rum.|Sal- ve|ra- dix, sal-|ve por-|ta, ex qua|
 F2 E2 F2 G2 A2 B2 | c8 c4 | z4 G4 G4 | c6 d2 c2 B2 | A6 B2 G4 | B4 B4 A4 | B12 | z4 B4 d4 | %37
w: mun- * * * * *|* do,|ex qua|mun- * * *|* do lux|est or- *|ta.|Gau- de|
 c6 c2 B4 | c4 A8 | G12 | z4 G4 G4 | F6 F2 _E4 | D4 D8 | C4 c4 c4 | B6 B2 B4 | A4 G8 | A12 | z12 | %48
w: Vir- go glo-|ri- o-|sa,|su- per|om- nes spe-|ci- o-|sa, su- per|om- nes spe-|ci- o-|sa.||
 A4 A4 F4 | A2 B2 A2 G2 F2 E2 | F8 F4 | d4 d4 B4 | d2 _e2 d2 c2 B2 A2 | B4 F4 z4 | D4 D4 D4 | %55
w: Va- le, o|val- * * * * *|* de,|va- le, o|val- * * * * *|* de,|va- le, o|
 G2 A2 G2 F2 _E2 D2 | _E8 E4 | G4 G4 G4 | _A4 A4 _E4 | D12 | E4 E4 F4 | G8 G4 | A4 G4 F4 | G8 G4 | %64
w: val- * * * * *|* de,|va- le, o|val- de de-|co-|ra, et pro|no- bis,|Chris- tum ex-|o- ra,|
 A4 A4 G4 | G8 G4 | z4 A4 B4 | c8 c4 | d4 c4 B4 | A4 A4 z4 | c4 B4 A4 | G8 G4 | E4 D4 C4 | %73
w: Chris- tum ex-|o- ra,|et pro|no- bis,|Chris- tum ex-|o- ra,|Chris- tum ex-|o- ra,|Chris- tum ex-|
 G4 G4 z4 | z12 | c4 B4 A4 | G8 G4 | c4 B4 A4 | G8 G4 | c4 B4 A4 | G8 G4 | z4 A4 B4 | c8 c4 | %83
w: o- ra,||Chris- tum ex-|o- ra,|Chris- tum ex-|o- ra,|Chris- tum ex-|o- ra,|et pro|no- bis,|
 z4 A4 B4 | c8 c4 | c4 B4 A4 | G8 G4 | c4 B4 A4 | G8 G4 | F4 E4 D4 | E8 E4 | A4 G4 F4 | %92
w: et pro|no- bis,|Chris- tum ex-|o- ra,|Chris- tum ex-|o- ra,|Chris- tum ex-|o- ra,|Chris- tum ex-|
 G2 F2 G2 A2 G4 | A16 |] %94
w: o- * * * *|ra.|
V:2
 x8 | z8 | x8 | z8 | z4 A4- | A4 F4 |[M:3/2] z4 C4 C4 | C4 C4 E4 | D6 D2 D4 | E8 E4 | z4 F4 F4 | %11
w: ||||A-|* ve,|a- ve,|a- ve Re-|gi- na Cæ-|lo- rum,|a- ve|
 D6 E2 F4 | F8 E4 | F8 F4 |[M:4/4] z8 | z4 D4- | D4 B,4 |[M:3/2] z4 D4 C4 | D4 D4 F4 | E6 D2 E4 | %20
w: Do- mi- na|an- ge-|lo- rum.||A-|* ve,|a- ve,|a- ve Re-|gi- na Cæ-|
 F8 F4 | z4 G4 G4 | F6 F2 E4 | D8 D4 | E8 E4 | z4 F4 E4 | D6 E2 F4 | F4 F4 E4 | F8 z4 | %29
w: lo- rum,|a- ve|Do- mi- na|an- ge-|lo- rum.|Sal- ve|ra- dix, sal-|ve por- *|ta,|
 z4 A,4 A,4 | A,2 G,2 A,2 B,2 C2 D2 | E8 E4 | z4 E4 E4 | F6 F2 _E4 | D4 C8 | D12 | z4 D4 D4 | %37
w: ex qua|mun- * * * * *|* do,|ex qua|mun- do lux|est or-|ta.|Gau- de|
 E6 ^F2 G4 | G4 G4 ^F4 | G12 | z4 _E4 E4 | D6 D2 C4 | C4 C4 =B,4 | C4 E4 F4 | D6 D2 D4 | F4 F4 E4 | %46
w: Vir- go glo-|ri- o- *|sa,|su- per|om- nes spe-|ci- o- *|sa, su- per|om- nes spe-|ci- o- *|
 F12 | C4 A,4 A,4 | C2 D2 C2 B,2 A,2 G,2 | A,8 A,4 | F4 F4 D4 | F2 G2 F2 E2 D2 C2 | D8 D4 | %53
w: sa.|Va- le, o|val- * * * * *|* de,|va- le, o|val- * * * * *|* de,|
 D4 D4 D4 | B,2 C2 B,2 A,2 G,2 F,2 | G,8 G,4 | z12 | _E4 E4 E4 | C4 C4 C4 | C8 =B,4 | C8 z4 | z12 | %62
w: va- le, o|val- * * * * *|* de,||va- le, o|val- de de-|co- *|ra,||
 z4 C4 D4 | E8 E4 | F4 E4 D4 | E8 E4 | F4 E4 D4 | C8 C4 | z12 | F4 E4 D4 | C8 C4 | E4 D4 C4 | %72
w: et pro|no- bis,|Chris- tum ex-|o- ra,|Chris- tum ex-|o- ra,||Chris- tum ex-|o- ra,|Chris- tum ex-|
 G8 G4 | z4 E4 F4 | G8 G4 | A4 G4 F4 | E8 E4 | A4 G4 F4 | E8 E4 | A4 G4 F4 | E8 E4 | z4 C4 D4 | %82
w: o- ra,|et pro|no- bis,|Chris- tum ex-|o- ra,|Chris- tum ex-|o- ra,|Chris- tum ex-|o- ra,|et pro|
 E8 E4 | z4 C4 D4 | E8 E4 | z4 C4 D4 | E8 E4 | z4 C4 D4 | E8 E4 | A4 G4 F4 | G8 G4 | F4 E4 D4 | %92
w: no- bis,|et pro|no- bis,|et pro|no- bis,|et pro|no- bis,|Chris- tum ex-|o- ra,|Chris- tum ex-|
 E2 D2 E2 F2 E4 | F16 |] %94
w: o- * * * *|ra.|
V:3
 x8 | z8 | x8 | F,4- F,_E,/D,/ C,/B,,/A,,/G,,/ | F,,8 | F,,8 |[M:3/2] z4 F,4 E,4 | F,4 F,4 C,4 | %8
w: |||A- * * * * * * *||ve,|a- ve,|a- ve Re-|
 G,6 F,2 G,4 | C,8 C,4 | z4 A,,4 A,,4 | B,,6 B,,2 F,,4 | C,8 C,4 | F,,8 F,,4 | %14
w: gi- na Cæ-|lo- rum,|a- ve|Do- mi- na|an- ge-|lo- rum.|
[M:4/4] B,4- B,A,/G,/ F,/_E,/D,/C,/ | B,,8 | B,,8 |[M:3/2] z4 B,4 A,4 | B,4 B,4 F,4 | C6 B,2 C4 | %20
w: A- * * * * * * *||ve,|a- ve,|a- ve Re-|gi- na Cæ-|
 F,8 F,4 | z4 E,4 E,4 | F,6 F,2 C,4 | G,8 G,4 | C,8 C,4 | z4 F,4 C,4 | D,6 D,2 D,4 | A,,4 C,8 | %28
w: lo- rum,|a- ve|Do- mi- na|an- ge-|lo- rum.|Sal- ve|ra- dix, sal-|ve por-|
 F,,8 z4 | z4 F,,4 F,,4 | F,,2 E,,2 F,,2 G,,2 A,,2 B,,2 | C,8 C,4 | z4 C,4 C,4 | F,6 D,2 _E,4 | %34
w: ta,|ex qua|mun- * * * * *|* do,|ex qua|mun- do lux|
 B,,4 F,8 | B,,12 | z12 | z12 | z12 | z12 | z4 _E,4 E,4 | F,6 G,2 _A,4 | F,4 G,8 | C,4 A,,4 A,,4 | %44
w: est or-|ta.|||||su- per|om- nes spe-|ci- o-|sa, su- per|
 B,,6 B,,2 B,,4 | F,,4 C,8 | F,,12 | z12 | F,4 F,4 F,4 | F,2 G,2 F,2 _E,2 D,2 C,2 | D,8 D,4 | z12 | %52
w: om- nes spe-|ci- o-|sa.||Va- le, o|val- * * * * *|* de,||
 B,4 B,4 G,4 | B,2 C2 B,2 A,2 G,2 F,2 | G,2 A,2 G,2 F,2 _E,2 D,2 | _E,2 F,2 E,2 D,2 C,2 B,,2 | %56
w: va- le, o|val- * * * * *|||
 C,8 C,4 | _E,4 E,4 E,4 | F,4 F,4 C,4 | G,12 | C,4 C,4 D,4 | E,8 E,4 | F,4 E,4 D,4 | C,8 C,4 | %64
w: * de,|va- le, o|val- de de-|co-|ra, et pro|no- bis,|Chris- tum ex-|o- ra,|
 z4 A,,4 B,,4 | C,8 C,4 | D,4 C,4 B,,4 | A,,8 A,,4 | B,,4 A,,4 G,,4 | F,,4 F,,4 z4 | %70
w: et pro|no- bis,|Chris- tum ex-|o- ra,|Chris- tum ex-|o- ra,|
 A,,4 G,,4 F,,4 | C,12 | C,12 | z4 C,4 D,4 | E,8 E,4 | F,2 E,2 F,2 G,2 A,2 B,2 | C8 C4 | %77
w: Chris- tum ex-|o-|ra,|et pro|no- bis,|Chris- * tum * ex- *|o- ra,|
 z4 A,,4 B,,4 | C,8 C,4 | z4 A,,4 B,,4 | C,8 C,4 | F,4 E,4 D,4 | C,8 C,4 | F,4 E,4 D,4 | C,8 C,4 | %85
w: et pro|no- bis,|et pro|no- bis,|Chris- tum ex-|o- ra,|Chris- tum ex-|o- ra,|
 A,,4 G,,4 F,,4 | C,8 C,4 | A,,4 G,,4 F,,4 | C,12- | C,12- | C,12- | C,12- | C,12 | F,,16 |] %94
w: Chris- tum ex-|o- ra,|Chris- tum ex-|o-|||||ra.|
V:4
 x8 | z8 | x8 | F,8 | F,,8 | F,,8 |[M:3/2] z4 F,4 E,4 | F,4 F,4 C,4 | G,6 F,2 G,4 | C,8 C,4 | %10
w: ||||||||||
 z4 A,,4 A,,4 | B,,6 B,,2 F,,4 | C,8 C,4 | F,,8 F,,4 |[M:4/4] B,8 | B,,8 | B,,8 | %17
w: |||||||
[M:3/2] z4 B,4 A,4 | B,4 B,4 F,4 | C6 B,2 C4 | F,8 F,4 | z4 E,4 E,4 | F,6 F,2 C,4 | G,8 G,4 | %24
w: |||||||
 C,8 C,4 | z4 F,4 C,4 | D,6 D,2 D,4 | A,,4 C,8 | F,,12 | F,,12 | F,,8 A,,4 | C,8 C,4 | z4 C,4 C,4 | %33
w: |||||||||
 F,6 D,2 _E,4 | B,,4 F,8 | B,,12 | B,,12 | C,6 D,2 _E,4 | C,4 D,8 | G,,12 | z4 _E,4 E,4 | %41
w: ||||||||
 F,6 G,2 _A,4 | F,4 G,8 | C,4 A,,4 A,,4 | B,,6 B,,2 B,,4 | F,,4 C,8 | F,,12 | F,,12 | F,12 | F,12 | %50
w: 6 * *||* 5 6|||||||
 D,12 | B,,12 | B,8 G,4 | B,12 | G,12 | _E,12 | C,12 | _E,4 E,4 E,4 | F,4 F,4 C,4 | G,12 | %60
w: ||||||||z`5 * *||
 C,8 D,4 | E,8 E,4 | F,4 E,4 D,4 | C,8 C,4 | A,,8 B,,4 | C,8 C,4 | D,4 C,4 B,,4 | A,,8 A,,4 | %68
w: ||||||||
 B,,4 A,,4 G,,4 | F,,4 F,,4 G,,4 | A,,4 G,,4 F,,4 | C,12 | C,12 | C,8 D,4 | E,8 E,4 | F,12 | %76
w: ||||||||
 C8 C4 | A,,8 B,,4 | C,8 C,4 | A,,8 B,,4 | C,8 C,4 | F,4 E,4 D,4 | C,8 C,4 | F,4 E,4 D,4 | %84
w: ||||||||
 C,8 C,4 | A,,4 G,,4 F,,4 | C,8 C,4 | A,,4 G,,4 F,,4 | C,12 | C,12- | C,12- | C,12- | C,12 | %93
w: |||||4|3|4|3|
 F,,16 |] %94
w: |

